docs/img/all-services/2.svg

<svg width="80" height="80" viewBox="0 0 80 80" fill="none" xmlns="http://www.w3.org/2000/svg">
<path d="M62.2888 60.857C63.5086 61.4137 64.049 62.8604 63.4959 64.088C62.9421 65.3156 61.5045 65.8594 60.2852 65.3027" stroke="#0098D0" stroke-width="2" stroke-miterlimit="10" stroke-linecap="round" stroke-linejoin="round"/>
<path d="M54.2966 64.288C52.8752 64.415 40.0277 65.7354 35.22 66.0099C34.1276 66.0723 33.0316 65.9988 31.9595 65.7791C28.7957 65.1297 21.1051 63.3804 15.2421 65.8542C15.2421 65.8542 12.9193 66.9348 10.3151 65.6507C9.14095 65.0719 7.92803 65.4479 7.28102 66.4155C6.89003 66.9995 7.72993 67.3411 8.83627 68.0966C11.477 69.9 13.7691 69.6873 15.9036 69.6873" stroke="#0098D0" stroke-width="2" stroke-miterlimit="10" stroke-linecap="round" stroke-linejoin="round"/>
<path d="M59.2064 58.6764C58.9266 50.3497 60.7211 40.7628 60.7211 40.7628C61.0895 38.7868 60.6111 37.0999 59.8598 35.4876C57.7027 30.8583 56.9914 26.669 56.97 23.2462C56.9213 15.5701 64.0471 9.68447 71.4538 11.5194C71.6873 11.5777 71.923 11.6413 72.1605 11.7124C75.4066 12.6783 77.6916 15.6184 78.0259 19.0086C80.0787 39.8296 75.8537 61.4043 73.5507 69.9822C72.4548 74.0631 68.842 76.9472 64.6431 77.0883C50.0828 77.5767 39.7127 74.6425 27.9768 74.0986C26.2686 74.0188 24.5517 74.1324 22.876 74.4752C8.56243 77.4066 1.42969 66.771 1.42969 66.771C1.43085 65.9392 1.95505 65.2532 2.65883 65.062C4.049 64.6855 5.86897 65.5155 7.61885 66.0157" stroke="#0098D0" stroke-width="2" stroke-miterlimit="10" stroke-linecap="round" stroke-linejoin="round"/>
<path d="M78.2134 40.7621H60.7227" stroke="#0098D0" stroke-width="2" stroke-miterlimit="10" stroke-linecap="round" stroke-linejoin="round"/>
<path d="M59.3633 51.818H77.0735" stroke="#0098D0" stroke-width="2" stroke-miterlimit="10" stroke-linecap="round" stroke-linejoin="round"/>
<path d="M36.1388 9.05966V26.9184C36.1388 29.6294 33.9545 31.8282 31.2598 31.8282H21.8906C19.196 31.8282 17.0117 29.63 17.0117 26.9184V9.05966" stroke="#0098D0" stroke-width="2" stroke-miterlimit="10" stroke-linecap="round" stroke-linejoin="round"/>
<path d="M30.072 31.8282V35.2538C30.072 36.401 29.1481 37.3307 28.0087 37.3307H25.1375C23.9981 37.3307 23.0742 36.401 23.0742 35.2538V31.8282" stroke="#0098D0" stroke-width="2" stroke-miterlimit="10" stroke-linecap="round" stroke-linejoin="round"/>
<path d="M44.1906 49.1846C50.3421 46.9626 49.3053 42.0726 46.8435 40.5087C45.2923 39.5236 43.0906 39.7346 41.7526 40.9971C39.9587 42.6904 39.9789 45.405 40.7001 47.9523C41.6466 51.2993 43.9467 54.0896 46.9385 55.8348C48.8598 56.9563 54.607 60.0456 59.0116 62.2973" stroke="#0098D0" stroke-width="2" stroke-miterlimit="10" stroke-linecap="round" stroke-linejoin="round"/>
<path d="M26.5742 37.3301V38.3771C26.5742 46.8897 33.2853 51.9252 41.4386 49.9183" stroke="#0098D0" stroke-width="2" stroke-miterlimit="10" stroke-linecap="round" stroke-linejoin="round"/>
<path d="M17.0117 15.8539H21.217" stroke="#0098D0" stroke-width="2" stroke-miterlimit="10" stroke-linecap="round" stroke-linejoin="round"/>
<path d="M17.0117 20.4442H21.217" stroke="#0098D0" stroke-width="2" stroke-miterlimit="10" stroke-linecap="round" stroke-linejoin="round"/>
<path d="M17.0117 25.0345H21.217" stroke="#0098D0" stroke-width="2" stroke-miterlimit="10" stroke-linecap="round" stroke-linejoin="round"/>
<path d="M36.7016 9.05967H16.4439C14.6216 9.05967 13.1445 7.57267 13.1445 5.73947V2.85715H40.0009V5.73947C40.0004 7.57326 38.5233 9.05967 36.7016 9.05967Z" stroke="#0098D0" stroke-width="2" stroke-miterlimit="10" stroke-linecap="round" stroke-linejoin="round"/>
</svg>

<svg width="80" height="80" fill="none" xmlns="http://www.w3.org/2000/svg"><path d="M62.289 60.857a2.447 2.447 0 011.207 3.231 2.42 2.42 0 01-3.21 1.215m-5.989-1.015c-1.422.127-14.27 1.447-19.077 1.722a12.645 12.645 0 01-3.26-.23c-3.164-.65-10.855-2.4-16.718.074 0 0-2.323 1.08-4.927-.203-1.174-.58-2.387-.203-3.034.764-.391.584.449.926 1.555 1.682 2.641 1.803 4.933 1.59 7.068 1.59" stroke="#0098D0" stroke-width="2" stroke-miterlimit="10" stroke-linecap="round" stroke-linejoin="round"/><path d="M59.206 58.676c-.28-8.326 1.515-17.913 1.515-17.913.369-1.976-.11-3.663-.861-5.275-2.157-4.63-2.869-8.819-2.89-12.242-.049-7.676 7.077-13.562 14.484-11.727.233.059.469.122.707.193 3.246.966 5.53 3.906 5.865 7.297 2.053 20.82-2.172 42.395-4.475 50.973-1.096 4.081-4.709 6.965-8.908 7.106-14.56.489-24.93-2.445-36.666-2.99a20.653 20.653 0 00-5.101.377C8.562 77.407 1.43 66.771 1.43 66.771c0-.832.525-1.518 1.229-1.709 1.39-.376 3.21.454 4.96.954m70.594-25.254h-17.49m-1.36 11.056h17.71M36.139 9.06v17.858c0 2.711-2.184 4.91-4.88 4.91h-9.368c-2.695 0-4.88-2.198-4.88-4.91V9.06" stroke="#0098D0" stroke-width="2" stroke-miterlimit="10" stroke-linecap="round" stroke-linejoin="round"/><path d="M30.072 31.828v3.426a2.07 2.07 0 01-2.063 2.077h-2.872a2.07 2.07 0 01-2.063-2.077v-3.426M44.19 49.185c6.152-2.222 5.115-7.112 2.654-8.676-1.552-.985-3.753-.774-5.091.488-1.794 1.693-1.774 4.408-1.053 6.955.947 3.347 3.247 6.138 6.238 7.883 1.922 1.121 7.669 4.21 12.074 6.462" stroke="#0098D0" stroke-width="2" stroke-miterlimit="10" stroke-linecap="round" stroke-linejoin="round"/><path d="M26.574 37.33v1.047c0 8.513 6.711 13.548 14.865 11.541M17.012 15.854h4.205m-4.205 4.59h4.205m-4.205 4.591h4.205M36.702 9.06H16.444c-1.822 0-3.3-1.487-3.3-3.32V2.856h26.857V5.74a3.31 3.31 0 01-3.3 3.32z" stroke="#0098D0" stroke-width="2" stroke-miterlimit="10" stroke-linecap="round" stroke-linejoin="round"/></svg>
